outputs/icons/communication/sd_card_sharp.svg

<svg xmlns="http://www.w3.org/2000/svg" width="1200" height="1200" fill="none"><g clip-path="url(#a)"><path fill="#000" d="M1000 100H500L200 400v700h800zM600 400H500V200h100zm150 0H650V200h100zm150 0H800V200h100z"/></g><defs><clipPath id="a"><path fill="#fff" d="M0 0h1200v1200H0z"/></clipPath></defs></svg>

<svg width="1200" height="1200" viewBox="0 0 1200 1200" fill="none" xmlns="http://www.w3.org/2000/svg"><g clip-path="url(#clip0_133_8)"><path d="M1000 100H500L200 400V1100H1000V100ZM600 400H500V200H600V400ZM750 400H650V200H750V400ZM900 400H800V200H900V400Z" fill="#1D1E23"/></g><defs><clipPath id="clip0_133_8"><path width="24" fill="white" d="M0 0H1200V1200H0V0z"/></clipPath></defs></svg>
